; generated by PrusaSlicer 2.8.0+win64 on 2026-02-25 at 08:47:11 UTC


;
;
; 

; external perimeters extrusion width = 0.60mm
; perimeters extrusion width = 0.50mm
; infill extrusion width = 0.50mm
; solid infill extrusion width = 0.50mm
; top infill extrusion width = 0.45mm
; first layer extrusion width = 0.42mm

M73 P0 R175
M73 Q0 S179
M201 X1000 Y1000 Z200 E5000 ; sets maximum accelerations, mm/sec^2
M203 X200 Y200 Z12 E120 ; sets maximum feedrates, mm / sec
M204 S1250 T1250 ; sets acceleration (S) and retract acceleration (R), mm/sec^2
M205 X8.00 Y8.00 Z0.40 E4.50 ; sets the jerk limits, mm/sec
M205 S0 T0 ; sets the minimum extruding and travel feed rate, mm/sec

; printing object gps_case.stl id:0 copy 0
; stop printing object gps_case.stl id:0 copy 0

;TYPE:Custom
M862.3 P "MK3S" ; printer model check
M862.1 P0.4 ; nozzle diameter check
M115 U3.13.3 ; tell printer latest fw version
G90 ; use absolute coordinates
M83 ; extruder relative mode
M104 S230 ; set extruder temp
M140 S85 ; set bed temp
M190 S85 ; wait for bed temp
M109 S230 ; wait for extruder temp
G28 W ; home all without mesh bed level
G80 X123.643 Y28.1574 W109.998 H61 ; mesh bed levelling

G1 Z0.2 F720
G1 Y-3 F1000 ; go outside print area
G92 E0
G1 X60 E9 F1000 ; intro line
G1 X100 E12.5 F1000 ; intro line

G92 E0
M221 S95

; Don't change E values below. Excessive value can damage the printer.

M907 E538 ; set extruder motor current
G21 ; set units to millimeters
G90 ; use absolute coordinates
M83 ; use relative distances for extrusion

M900 K0.08 ; Filament gcode LA 1.5
M900 K45 ; Filament gcode LA 1.0




M107
;LAYER_CHANGE
;Z:0.2
;HEIGHT:0.2
G1 E-1 F2100
G1 Z.4 F720
; printing object gps_case.stl id:0 copy 0
G1 X185.75 Y77.18 F10800
G1 Z.2 F720
M73 Q0 S178
G1 E1 F2100
M204 S800
;TYPE:Perimeter
;WIDTH:0.419999
G1 F1200
G1 X185.854 Y76.718 E.01485
G1 X186.093 Y76.144 E.0195
G1 X186.428 Y75.621 E.01947
G1 X186.849 Y75.163 E.01951
G1 X187.343 Y74.786 E.01948
G1 X187.895 Y74.5 E.01949
G1 X188.488 Y74.315 E.01948
G1 X189.08 Y74.237 E.01872
G1 X189.704 Y74.261 E.01958
G1 X190.332 Y74.399 E.02016
G1 X190.906 Y74.638 E.0195
G1 X191.429 Y74.973 E.01947
G1 X191.886 Y75.394 E.01948
G1 X192.264 Y75.888 E.0195
G1 X192.55 Y76.44 E.01949
G1 X192.735 Y77.033 E.01948
G1 X192.815 Y77.65 E.01951
G1 X192.787 Y78.27 E.01946
G1 X192.651 Y78.877 E.0195
G1 X192.412 Y79.451 E.0195
G1 X192.077 Y79.974 E.01947
G1 X191.656 Y80.432 E.01951
G1 X191.162 Y80.809 E.01948
G1 X190.61 Y81.095 E.01949
G1 X190.017 Y81.28 E.01948
G1 X189.4 Y81.36 E.01951
G1 X188.779 Y81.332 E.01949
G1 X188.173 Y81.196 E.01947
G1 X187.599 Y80.957 E.0195
G1 X187.076 Y80.622 E.01947
G1 X186.618 Y80.201 E.01951
G1 X186.241 Y79.707 E.01948
G1 X185.955 Y79.155 E.01949
G1 X185.769 Y78.562 E.01949
G1 X185.69 Y77.945 E.0195
G1 X185.718 Y77.324 E.01949
G1 X185.737 Y77.238 E.00276
M204 S1000
G1 X185.737 Y77.238 F10800
G1 X186.119 Y77.245
M204 S800
G1 F1200
G1 X186.218 Y76.815 E.01384
G1 X186.435 Y76.303 E.01744
G1 X186.737 Y75.837 E.01741
G1 X187.116 Y75.43 E.01744
G1 X187.559 Y75.095 E.01741
G1 X188.054 Y74.842 E.01743
G1 X188.586 Y74.679 E.01745
G1 X189.113 Y74.613 E.01665
G1 X189.676 Y74.637 E.01767
G1 X190.234 Y74.763 E.01794
G1 X190.746 Y74.98 E.01744
G1 X191.213 Y75.282 E.01744
G1 X191.62 Y75.661 E.01744
G1 X191.955 Y76.104 E.01741
G1 X192.208 Y76.599 E.01743
G1 X192.371 Y77.131 E.01745
G1 X192.439 Y77.682 E.01741
G1 X192.411 Y78.238 E.01746
G1 X192.287 Y78.779 E.0174
G1 X192.07 Y79.291 E.01744
G1 X191.768 Y79.758 E.01744
G1 X191.389 Y80.165 E.01744
G1 X190.945 Y80.5 E.01744
G1 X190.45 Y80.753 E.01743
G1 X189.919 Y80.916 E.01742
G1 X189.367 Y80.984 E.01744
G1 X188.812 Y80.956 E.01742
G1 X188.27 Y80.832 E.01743
G1 X187.758 Y80.615 E.01744
G1 X187.292 Y80.313 E.01741
G1 X186.885 Y79.934 E.01744
G1 X186.55 Y79.491 E.01741
G1 X186.297 Y78.996 E.01743
G1 X186.134 Y78.464 E.01745
G1 X186.065 Y77.912 E.01744
G1 X186.094 Y77.357 E.01743
G1 X186.106 Y77.303 E.00173
M204 S1000
G1 X186.106 Y77.303 F10800
G1 X186.488 Y77.31
M204 S800
G1 F1200
G1 X186.498 Y77.228 E.00259
G1 X186.639 Y76.759 E.01536
G1 X186.859 Y76.321 E.01537
G1 X187.151 Y75.927 E.01538
G1 X187.508 Y75.591 E.01537
G1 X187.918 Y75.322 E.01538
G1 X188.368 Y75.127 E.01538
G1 X188.845 Y75.014 E.01537
G1 X189.298 Y74.987 E.01423
G1 X189.821 Y75.043 E.01649
G1 X190.291 Y75.184 E.01539
G1 X190.729 Y75.404 E.01537
G1 X191.122 Y75.697 E.01537
G1 X191.459 Y76.053 E.01537
G1 X191.728 Y76.463 E.01538
G1 X191.922 Y76.913 E.01536
G1 X192.035 Y77.39 E.01537
G1 X192.064 Y77.88 E.01539
G1 X192.007 Y78.367 E.01537
G1 X191.866 Y78.836 E.01536
G1 X191.646 Y79.274 E.01537
G1 X191.353 Y79.667 E.01537
G1 X190.997 Y80.004 E.01537
G1 X190.587 Y80.273 E.01538
G1 X190.137 Y80.467 E.01536
G1 X189.66 Y80.58 E.01537
G1 X189.334 Y80.609 E.01026
G1 X188.683 Y80.552 E.02049
G1 X188.214 Y80.411 E.01536
G1 X187.775 Y80.191 E.0154
G1 X187.382 Y79.898 E.01537
G1 X187.046 Y79.542 E.01535
G1 X186.776 Y79.132 E.01539
G1 X186.582 Y78.682 E.01536
G1 X186.469 Y78.205 E.01537
G1 X186.441 Y77.715 E.01539
G1 X186.481 Y77.37 E.01089
M204 S1000
G1 X186.481 Y77.37 F10800
G1 X186.857 Y77.375
M204 S800
G1 F1200
G1 X186.862 Y77.326 E.00154
G1 X186.98 Y76.918 E.01332
G1 X187.168 Y76.537 E.01332
G1 X187.418 Y76.194 E.01331
G1 X187.724 Y75.9 E.01331
G1 X188.077 Y75.663 E.01333
G1 X188.466 Y75.492 E.01332
G1 X188.878 Y75.39 E.01331
G1 X189.27 Y75.363 E.01232
G1 X189.724 Y75.407 E.0143
G1 X190.132 Y75.525 E.01332
G1 X190.513 Y75.713 E.01332
G1 X190.856 Y75.963 E.01331
G1 X191.15 Y76.269 E.01331
G1 X191.386 Y76.622 E.01331
G1 X191.558 Y77.011 E.01334
G1 X191.66 Y77.423 E.01331
G1 X191.688 Y77.847 E.01332
G1 X191.643 Y78.269 E.01331
G1 X191.524 Y78.677 E.01333
G1 X191.337 Y79.058 E.01331
G1 X191.087 Y79.401 E.01331
G1 X190.78 Y79.695 E.01333
G1 X190.427 Y79.932 E.01333
G1 X190.039 Y80.103 E.01329
G1 X189.627 Y80.205 E.01331
G1 X189.302 Y80.233 E.01023
G1 X188.781 Y80.188 E.0164
G1 X188.373 Y80.069 E.01333
G1 X187.992 Y79.882 E.01331
G1 X187.649 Y79.632 E.01331
G1 X187.355 Y79.325 E.01333
G1 X187.118 Y78.973 E.01331
G1 X186.947 Y78.584 E.01332
G1 X186.845 Y78.172 E.01331
G1 X186.817 Y77.748 E.01332
G1 X186.85 Y77.435 E.00987
M204 S1000
G1 X186.85 Y77.435 F10800
G1 X187.225 Y77.44
M204 S800
;TYPE:External perimeter
G1 F1200
G1 X187.226 Y77.423 E.00053
G1 X187.322 Y77.077 E.01126
G1 X187.476 Y76.753 E.01125
G1 X187.685 Y76.461 E.01126
G1 X187.941 Y76.209 E.01126
G1 X188.236 Y76.005 E.01125
G1 X188.563 Y75.856 E.01127
G1 X188.911 Y75.766 E.01127
G1 X189.242 Y75.739 E.01041
G1 X189.626 Y75.771 E.01208
G1 X189.972 Y75.867 E.01126
G1 X190.297 Y76.022 E.01129
G1 X190.589 Y76.23 E.01124
G1 X190.841 Y76.486 E.01126
G1 X191.045 Y76.782 E.01127
G1 X191.194 Y77.108 E.01124
G1 X191.284 Y77.456 E.01127
G1 X191.312 Y77.814 E.01126
G1 X191.278 Y78.171 E.01124
G1 X191.183 Y78.517 E.01125
G1 X191.028 Y78.842 E.01129
G1 X190.82 Y79.134 E.01124
G1 X190.564 Y79.386 E.01126
G1 X190.268 Y79.59 E.01127
G1 X189.941 Y79.739 E.01127
G1 X189.594 Y79.829 E.01124
G1 X189.269 Y79.858 E.01023
G1 X188.878 Y79.823 E.01231
G1 X188.532 Y79.728 E.01125
G1 X188.208 Y79.573 E.01126
G1 X187.915 Y79.365 E.01127
G1 X187.664 Y79.109 E.01124
G1 X187.46 Y78.813 E.01127
G1 X187.311 Y78.487 E.01124
G1 X187.221 Y78.139 E.01127
G1 X187.192 Y77.781 E.01126
G1 X187.219 Y77.5 E.00885
M204 S1000
;WIPE_START
G1 F8640
G1 X187.225 Y77.44 E-.01392
G1 X187.226 Y77.423 E-.00393
G1 X187.322 Y77.077 E-.08291
G1 X187.476 Y76.753 E-.08283
G1 X187.685 Y76.461 E-.08291
G1 X187.941 Y76.209 E-.08295
G1 X188.236 Y76.005 E-.08282
G1 X188.563 Y75.856 E-.08297
G1 X188.911 Y75.766 E-.083
G1 X189.242 Y75.739 E-.07668
G1 X189.626 Y75.771 E-.08897
G1 X189.972 Y75.867 E-.08291
G1 X190.297 Y76.022 E-.08314
G1 X190.544 Y76.198 E-.07006
;WIPE_END
G1 Z.4 F720
G1 X219.385 Y40.669 F10800
G1 Z.2 F720
G1 E1 F2100
M204 S800
;TYPE:Perimeter
G1 F1200
G1 X218.923 Y40.566 E.01484
G1 X218.349 Y40.327 E.0195
G1 X217.794 Y39.969 E.02071
G1 X217.368 Y39.571 E.01828
G1 X216.991 Y39.077 E.01948
G1 X216.705 Y38.525 E.01949
G1 X216.519 Y37.932 E.01949
G1 X216.44 Y37.315 E.0195
G1 X216.468 Y36.694 E.01949
G1 X216.604 Y36.088 E.01947
G1 X216.843 Y35.514 E.0195
G1 X217.178 Y34.991 E.01947
G1 X217.599 Y34.533 E.01951
G1 X218.093 Y34.156 E.01948
G1 X218.645 Y33.87 E.01949
G1 X219.238 Y33.685 E.01948
G1 X219.83 Y33.607 E.01872
G1 X220.454 Y33.631 E.01958
G1 X221.082 Y33.769 E.02016
G1 X221.656 Y34.008 E.0195
G1 X222.179 Y34.343 E.01947
G1 X222.636 Y34.764 E.01948
G1 X223.014 Y35.258 E.0195
G1 X223.289 Y35.787 E.01869
G1 X223.462 Y36.319 E.01754
G1 X223.565 Y37.019 E.02218
G1 X223.537 Y37.64 E.01949
G1 X223.401 Y38.247 E.0195
G1 X223.162 Y38.821 E.0195
G1 X222.827 Y39.344 E.01947
G1 X222.406 Y39.802 E.01951
G1 X221.912 Y40.179 E.01948
G1 X221.36 Y40.465 E.01949
G1 X220.767 Y40.65 E.01948
G1 X220.15 Y40.73 E.01951
G1 X219.529 Y40.702 E.01949
G1 X219.443 Y40.682 E.00277
M204 S1000
G1 X219.443 Y40.682 F10800
G1 X219.45 Y40.3
M204 S800
G1 F1200
G1 X219.02 Y40.202 E.01383
G1 X218.508 Y39.985 E.01744
G1 X218.017 Y39.665 E.01838
G1 X217.635 Y39.304 E.01648
G1 X217.3 Y38.861 E.01741
G1 X217.047 Y38.366 E.01743
G1 X216.884 Y37.834 E.01745
G1 X216.815 Y37.282 E.01744
G1 X216.844 Y36.727 E.01743
G1 X216.968 Y36.185 E.01743
G1 X217.185 Y35.674 E.01741
G1 X217.487 Y35.207 E.01744
G1 X217.866 Y34.8 E.01744
G1 X218.309 Y34.465 E.01741
G1 X218.804 Y34.212 E.01743
G1 X219.336 Y34.049 E.01745
G1 X219.863 Y33.983 E.01665
G1 X220.426 Y34.007 E.01767
G1 X220.984 Y34.133 E.01794
G1 X221.496 Y34.35 E.01744
G1 X221.963 Y34.652 E.01744
G1 X222.37 Y35.031 E.01744
G1 X222.705 Y35.474 E.01741
G1 X222.947 Y35.947 E.01666
G1 X223.117 Y36.485 E.01769
G1 X223.189 Y37.052 E.01792
G1 X223.161 Y37.608 E.01746
G1 X223.037 Y38.149 E.0174
G1 X222.82 Y38.661 E.01744
G1 X222.518 Y39.128 E.01744
G1 X222.139 Y39.535 E.01744
G1 X221.695 Y39.87 E.01744
G1 X221.2 Y40.123 E.01743
G1 X220.669 Y40.286 E.01742
G1 X220.117 Y40.354 E.01744
G1 X219.562 Y40.326 E.01742
G1 X219.508 Y40.314 E.00173
M204 S1000
G1 X219.508 Y40.314 F10800
G1 X219.515 Y39.931
M204 S800
G1 F1200
G1 X219.433 Y39.922 E.00259
G1 X218.964 Y39.781 E.01536
G1 X218.525 Y39.561 E.0154
G1 X218.24 Y39.361 E.01092
G1 X217.859 Y38.992 E.01663
G1 X217.568 Y38.58 E.01582
G1 X217.35 Y38.109 E.01627
G1 X217.219 Y37.575 E.01724
G1 X217.191 Y37.085 E.01539
G1 X217.248 Y36.598 E.01537
G1 X217.389 Y36.129 E.01536
G1 X217.609 Y35.691 E.01537
G1 X217.901 Y35.297 E.01538
G1 X218.258 Y34.961 E.01537
G1 X218.668 Y34.692 E.01538
G1 X219.118 Y34.497 E.01538
G1 X219.595 Y34.384 E.01537
G1 X220.048 Y34.357 E.01423
G1 X220.571 Y34.413 E.01649
G1 X221.041 Y34.554 E.01539
G1 X221.479 Y34.774 E.01537
G1 X221.872 Y35.067 E.01537
G1 X222.209 Y35.423 E.01537
G1 X222.478 Y35.833 E.01538
G1 X222.659 Y36.249 E.01422
G1 X222.785 Y36.76 E.0165
G1 X222.814 Y37.25 E.01539
G1 X222.757 Y37.737 E.01537
G1 X222.616 Y38.206 E.01536
G1 X222.396 Y38.644 E.01537
G1 X222.103 Y39.037 E.01537
G1 X221.747 Y39.374 E.01537
G1 X221.337 Y39.643 E.01538
G1 X220.887 Y39.837 E.01536
G1 X220.41 Y39.95 E.01537
G1 X219.92 Y39.979 E.01539
G1 X219.575 Y39.938 E.01089
M204 S1000
G1 X219.575 Y39.938 F10800
G1 X219.58 Y39.563
M204 S800
G1 F1200
G1 X219.531 Y39.558 E.00154
G1 X219.123 Y39.439 E.01333
G1 X218.742 Y39.252 E.01331
G1 X218.464 Y39.057 E.01065
G1 X218.105 Y38.695 E.01599
G1 X217.868 Y38.343 E.01331
G1 X217.697 Y37.954 E.01332
G1 X217.595 Y37.542 E.01331
G1 X217.567 Y37.118 E.01332
G1 X217.612 Y36.696 E.01331
G1 X217.73 Y36.288 E.01332
G1 X217.918 Y35.907 E.01332
G1 X218.168 Y35.564 E.01331
G1 X218.474 Y35.27 E.01331
G1 X218.827 Y35.033 E.01333
G1 X219.216 Y34.862 E.01332
G1 X219.628 Y34.76 E.01331
G1 X220.02 Y34.733 E.01232
G1 X220.474 Y34.777 E.0143
G1 X220.882 Y34.895 E.01332
G1 X221.263 Y35.083 E.01332
G1 X221.606 Y35.333 E.01331
G1 X221.9 Y35.639 E.01331
G1 X222.136 Y35.992 E.01331
G1 X222.296 Y36.351 E.01232
G1 X222.41 Y36.793 E.01431
G1 X222.438 Y37.217 E.01332
G1 X222.393 Y37.639 E.01331
G1 X222.274 Y38.047 E.01333
G1 X222.087 Y38.428 E.01331
G1 X221.837 Y38.771 E.01331
G1 X221.53 Y39.065 E.01333
G1 X221.178 Y39.301 E.01329
G1 X220.789 Y39.473 E.01334
G1 X220.377 Y39.575 E.01331
G1 X219.953 Y39.603 E.01332
G1 X219.64 Y39.569 E.00987
M204 S1000
G1 X219.64 Y39.569 F10800
G1 X219.645 Y39.195
M204 S800
;TYPE:External perimeter
G1 F1200
G1 X219.628 Y39.193 E.00054
G1 X219.282 Y39.098 E.01125
G1 X218.958 Y38.943 E.01126
G1 X218.687 Y38.754 E.01036
G1 X218.414 Y38.479 E.01215
G1 X218.21 Y38.183 E.01127
G1 X218.061 Y37.857 E.01124
G1 X217.971 Y37.509 E.01127
G1 X217.942 Y37.151 E.01126
G1 X217.976 Y36.793 E.01128
G1 X218.072 Y36.447 E.01126
G1 X218.226 Y36.123 E.01125
G1 X218.435 Y35.831 E.01126
G1 X218.691 Y35.579 E.01126
G1 X218.986 Y35.375 E.01125
G1 X219.313 Y35.226 E.01127
G1 X219.661 Y35.136 E.01127
G1 X219.992 Y35.109 E.01041
G1 X220.376 Y35.141 E.01208
G1 X220.722 Y35.237 E.01126
G1 X221.047 Y35.392 E.01129
G1 X221.339 Y35.6 E.01124
G1 X221.591 Y35.856 E.01126
G1 X221.795 Y36.152 E.01127
G1 X222.01 Y36.728 E.01928
G1 X222.062 Y37.184 E.01439
G1 X222.028 Y37.541 E.01124
G1 X221.933 Y37.887 E.01125
G1 X221.778 Y38.212 E.01129
G1 X221.57 Y38.504 E.01124
G1 X221.314 Y38.756 E.01126
G1 X221.018 Y38.96 E.01127
G1 X220.691 Y39.109 E.01127
G1 X220.344 Y39.199 E.01124
G1 X219.986 Y39.228 E.01126
G1 X219.705 Y39.201 E.00885
M204 S1000
;WIPE_START
G1 F8640
G1 X219.645 Y39.195 E-.01392
G1 X219.628 Y39.193 E-.00395
G1 X219.282 Y39.098 E-.08285
G1 X218.958 Y38.943 E-.08293
G1 X218.687 Y38.754 E-.07629
G1 X218.414 Y38.479 E-.08947
G1 X218.21 Y38.183 E-.08301
G1 X218.061 Y37.857 E-.08276
G1 X217.971 Y37.509 E-.083
G1 X217.942 Y37.151 E-.08293
G1 X217.976 Y36.793 E-.08304
G1 X218.072 Y36.447 E-.08291
G1 X218.226 Y36.123 E-.08283
G1 X218.402 Y35.876 E-.07011
;WIPE_END
G1 Z.4 F720
G1 X134.373 Y38.945 F10800
G1 Z.2 F720
G1 E1 F2100
M204 S800
;TYPE:Perimeter
G1 F1200
G1 X134.155 Y38.525 E.01484
G1 X133.969 Y37.932 E.01949
G1 X133.89 Y37.315 E.0195
G1 X133.918 Y36.694 E.01949
G1 X134.054 Y36.088 E.01947
G1 X134.293 Y35.514 E.0195
G1 X134.628 Y34.991 E.01947
G1 X135.049 Y34.533 E.01951
G1 X135.543 Y34.156 E.01948
G1 X136.095 Y33.87 E.01949
G1 X136.688 Y33.685 E.01948
G1 X137.28 Y33.607 E.01872
G1 X137.904 Y33.631 E.01958
G1 X138.532 Y33.769 E.02016
G1 X139.106 Y34.008 E.0195
G1 X139.629 Y34.343 E.01947
G1 X140.086 Y34.764 E.01948
G1 X140.464 Y35.258 E.0195
G1 X140.75 Y35.81 E.01949
G1 X140.935 Y36.403 E.01948
G1 X141.015 Y37.019 E.01948
G1 X140.987 Y37.64 E.01949
G1 X140.851 Y38.247 E.0195
G1 X140.612 Y38.821 E.0195
G1 X140.277 Y39.344 E.01947
G1 X139.856 Y39.802 E.01951
G1 X139.362 Y40.179 E.01948
G1 X138.81 Y40.465 E.01949
G1 X138.217 Y40.65 E.01948
G1 X137.6 Y40.73 E.01951
G1 X136.979 Y40.702 E.01949
G1 X136.373 Y40.566 E.01947
G1 X135.799 Y40.327 E.0195
G1 X135.276 Y39.992 E.01947
G1 X134.818 Y39.571 E.01951
G1 X134.441 Y39.077 E.01948
G1 X134.4 Y38.999 E.00276
M204 S1000
G1 X134.4 Y38.999 F10800
G1 X134.697 Y38.758
M204 S800
G1 F1200
G1 X134.497 Y38.366 E.0138
G1 X134.334 Y37.834 E.01745
G1 X134.265 Y37.282 E.01744
G1 X134.294 Y36.727 E.01743
G1 X134.418 Y36.185 E.01743
G1 X134.635 Y35.674 E.01741
G1 X134.937 Y35.207 E.01744
G1 X135.316 Y34.8 E.01744
G1 X135.759 Y34.465 E.01741
G1 X136.254 Y34.212 E.01743
G1 X136.786 Y34.049 E.01745
G1 X137.313 Y33.983 E.01665
G1 X137.876 Y34.007 E.01767
G1 X138.434 Y34.133 E.01794
G1 X138.946 Y34.35 E.01744
G1 X139.413 Y34.652 E.01744
G1 X139.82 Y35.031 E.01744
G1 X140.155 Y35.474 E.01741
G1 X140.408 Y35.969 E.01743
G1 X140.571 Y36.501 E.01745
G1 X140.639 Y37.052 E.01741
G1 X140.611 Y37.608 E.01746
G1 X140.487 Y38.149 E.0174
G1 X140.27 Y38.661 E.01744
G1 X139.968 Y39.128 E.01744
G1 X139.589 Y39.535 E.01744
G1 X139.145 Y39.87 E.01744
G1 X138.65 Y40.123 E.01743
G1 X138.119 Y40.286 E.01742
G1 X137.567 Y40.354 E.01744
G1 X137.012 Y40.326 E.01742
G1 X136.47 Y40.202 E.01743
G1 X135.958 Y39.985 E.01744
G1 X135.492 Y39.683 E.01741
G1 X135.085 Y39.304 E.01744
G1 X134.75 Y38.861 E.01741
G1 X134.725 Y38.811 E.00175
M204 S1000
G1 X134.725 Y38.811 F10800
G1 X135.022 Y38.571
M204 S800
G1 F1200
