; generated by PrusaSlicer 2.8.0+win64 on 2026-02-25 at 08:47:59 UTC


;
;
; 

; external perimeters extrusion width = 0.60mm
; perimeters extrusion width = 0.50mm
; infill extrusion width = 0.50mm
; solid infill extrusion width = 0.50mm
; top infill extrusion width = 0.45mm
; first layer extrusion width = 0.42mm

M73 P0 R6
M73 Q0 S6
M201 X1000 Y1000 Z200 E5000 ; sets maximum accelerations, mm/sec^2
M203 X200 Y200 Z12 E120 ; sets maximum feedrates, mm / sec
M204 S1250 T1250 ; sets acceleration (S) and retract acceleration (R), mm/sec^2
M205 X8.00 Y8.00 Z0.40 E4.50 ; sets the jerk limits, mm/sec
M205 S0 T0 ; sets the minimum extruding and travel feed rate, mm/sec

; printing object neo_support.stl id:0 copy 0
; stop printing object neo_support.stl id:0 copy 0

;TYPE:Custom
M862.3 P "MK3S" ; printer model check
M862.1 P0.4 ; nozzle diameter check
M115 U3.13.3 ; tell printer latest fw version
G90 ; use absolute coordinates
M83 ; extruder relative mode
M104 S230 ; set extruder temp
M140 S85 ; set bed temp
M190 S85 ; wait for bed temp
M109 S230 ; wait for extruder temp
G28 W ; home all without mesh bed level
G80 X198.674 Y24.1411 W35.48 H25.84 ; mesh bed levelling

G1 Z0.2 F720
G1 Y-3 F1000 ; go outside print area
G92 E0
G1 X60 E9 F1000 ; intro line
G1 X100 E12.5 F1000 ; intro line
M73 P1 R6
M73 Q1 S6

G92 E0
M221 S95

; Don't change E values below. Excessive value can damage the printer.

M907 E538 ; set extruder motor current
G21 ; set units to millimeters
G90 ; use absolute coordinates
M83 ; use relative distances for extrusion

M900 K0.08 ; Filament gcode LA 1.5
M900 K45 ; Filament gcode LA 1.0




M107
;LAYER_CHANGE
;Z:0.2
;HEIGHT:0.2
G1 E-1 F2100
G1 Z.4 F720
; printing object neo_support.stl id:0 copy 0
G1 X228.356 Y44.486 F10800
G1 Z.2 F720
M73 Q2 S6
G1 E1 F2100
M204 S800
;TYPE:Perimeter
;WIDTH:0.419999
G1 F1200
G1 X228.22 Y44.622 E.00603
G1 X227.925 Y44.787 E.0106
G1 X227.551 Y44.877 E.01206
G1 X210.343 Y44.882 E.53954
G1 X210.024 Y44.843 E.01008
M73 P2 R6
G1 X209.732 Y44.733 E.00978
G1 X209.353 Y44.436 E.0151
G1 X209.205 Y44.232 E.0079
G1 X209.076 Y43.935 E.01015
G1 X209.023 Y43.563 E.01178
G1 X209.023 Y30.637 E.40528
G1 X209.078 Y30.259 E.01198
G1 X209.21 Y29.96 E.01025
G1 X209.496 Y29.625 E.01381
G1 X209.739 Y29.463 E.00916
G1 X210.115 Y29.337 E.01243
G1 X210.343 Y29.317 E.00718
G1 X227.432 Y29.317 E.53581
G1 X227.826 Y29.377 E.0125
G1 X228.165 Y29.539 E.01178
G1 X228.459 Y29.807 E.01247
G1 X228.539 Y29.918 E.00429
G1 X228.698 Y30.263 E.01191
G1 X228.752 Y30.637 E.01185
G1 X228.752 Y43.563 E.40528
G1 X228.672 Y44.016 E.01442
G1 X228.488 Y44.354 E.01207
G1 X228.398 Y44.444 E.00399
M204 S1000
G1 X228.398 Y44.444 F10800
G1 X228.082 Y44.219
M204 S800
G1 F1200
G1 X227.889 Y44.387 E.00802
G1 X227.517 Y44.501 E.0122
G1 X227.016 Y44.505 E.01571
G1 X210.343 Y44.505 E.52277
G1 X210.115 Y44.477 E.0072
M73 P3 R6
M73 Q3 S6
G1 X209.732 Y44.281 E.01349
G1 X209.53 Y44.04 E.00986
G1 X209.403 Y43.645 E.01301
G1 X209.4 Y43.563 E.00257
G1 X209.4 Y30.637 E.40528
G1 X209.439 Y30.367 E.00855
G1 X209.641 Y30.008 E.01292
G1 X209.911 Y29.799 E.01071
G1 X210.18 Y29.708 E.0089
G1 X210.343 Y29.694 E.00513
G1 X227.432 Y29.694 E.53581
G1 X227.713 Y29.737 E.00891
G1 X228.035 Y29.912 E.01149
G1 X228.223 Y30.124 E.00888
G1 X228.365 Y30.496 E.01248
G1 X228.375 Y31.142 E.02026
G1 X228.375 Y43.563 E.38945
G1 X228.318 Y43.886 E.01028
G1 X228.187 Y44.128 E.00863
G1 X228.127 Y44.18 E.00249
M204 S1000
G1 X228.127 Y44.18 F10800
G1 X227.828 Y43.948
M204 S800
G1 F1200
G1 X227.77 Y44.016 E.0028
G1 X227.541 Y44.118 E.00786
G1 X227.016 Y44.128 E.01646
G1 X210.343 Y44.128 E.52277
G1 X210.081 Y44.064 E.00846
M73 P4 R5
M73 Q4 S6
G1 X209.918 Y43.937 E.00648
G1 X209.8 Y43.722 E.00769
G1 X209.777 Y43.563 E.00504
G1 X209.777 Y30.637 E.40528
G1 X209.857 Y30.347 E.00943
G1 X209.98 Y30.203 E.00594
G1 X210.245 Y30.08 E.00916
G1 X210.343 Y30.071 E.00309
G1 X227.432 Y30.071 E.53581
G1 X227.697 Y30.137 E.00856
G1 X227.907 Y30.329 E.00892
G1 X227.992 Y30.552 E.00748
G1 X227.998 Y31.142 E.0185
G1 X227.998 Y43.563 E.38945
G1 X227.935 Y43.822 E.00836
G1 X227.867 Y43.903 E.00332
M204 S1000
G1 X227.867 Y43.903 F10800
G1 X227.577 Y43.664
M204 S800
;TYPE:External perimeter
G1 F1200
G1 X227.561 Y43.7 E.00124
G1 X227.401 Y43.751 E.00527
G1 X210.343 Y43.751 E.53484
G1 X210.201 Y43.687 E.00488
G1 X210.154 Y43.563 E.00416
G1 X210.154 Y30.637 E.40528
G1 X210.222 Y30.492 E.00502
M73 P5 R5
M73 Q5 S5
G1 X210.343 Y30.448 E.00404
G1 X227.432 Y30.448 E.53581
G1 X227.591 Y30.534 E.00567
G1 X227.621 Y30.637 E.00336
G1 X227.621 Y43.563 E.40528
G1 X227.601 Y43.609 E.00157
M204 S1000
;WIPE_START
G1 F8640
G1 X227.577 Y43.664 E-.01386
G1 X227.561 Y43.7 E-.0091
G1 X227.401 Y43.751 E-.03878
G1 X223.337 Y43.751 E-.93826
;WIPE_END
G1 Z.4 F720
G1 X232.856 Y25.094 F10800
G1 Z.2 F720
G1 E1 F2100
M204 S800
;WIDTH:0.437108
G1 F1200
G1 X232.923 Y25.133 E.00254
;WIDTH:0.419999
G1 X233.282 Y25.547 E.01718
;WIDTH:0.427595
G1 X233.48 Y26.138 E.01994
G1 X233.512 Y26.557 E.01344
;WIDTH:0.422176
G1 X233.497 Y27.09 E.01681
;WIDTH:0.435878
G1 X233.421 Y27.518 E.0142
G1 X233.227 Y27.914 E.01441
;WIDTH:0.419999
G1 X232.835 Y28.332 E.01797
G1 X232.421 Y28.575 E.01505
G1 X232.016 Y28.701 E.0133
G1 X231.595 Y28.74 E.01326
G1 X231.165 Y28.69 E.01357
G1 X230.626 Y28.487 E.01806
G1 X230.24 Y28.215 E.01481
G1 X229.955 Y27.902 E.01327
G1 X229.741 Y27.537 E.01327
G1 X229.603 Y27.121 E.01374
G1 X229.555 Y26.715 E.01282
G1 X229.592 Y26.293 E.01328
G1 X229.715 Y25.886 E.01333
G1 X229.93 Y25.504 E.01374
G1 X230.356 Y25.083 E.01878
;WIDTH:0.440602
G1 X230.783 Y24.871 E.01576
G1 X231.5 Y24.782 E.02389
;WIDTH:0.420665
G1 X232.066 Y24.804 E.01779
;WIDTH:0.437108
G1 X232.505 Y24.893 E.01468
G1 X232.804 Y25.064 E.01129
M204 S1000
;WIPE_START
G1 F8640
G1 X232.856 Y25.094 E-.01386
G1 X232.923 Y25.133 E-.0179
G1 X233.282 Y25.547 E-.12653
G1 X233.48 Y26.138 E-.14392
G1 X233.512 Y26.557 E-.09703
G1 X233.497 Y27.09 E-.12312
G1 X233.421 Y27.518 E-.10037
G1 X233.227 Y27.914 E-.10182
G1 X232.835 Y28.332 E-.13232
G1 X232.421 Y28.575 E-.11084
G1 X232.288 Y28.616 E-.03229
;WIPE_END
G1 Z.4 F720
G1 X230.51 Y45.245 F10800
G1 Z.2 F720
G1 E1 F2100
M204 S800
;WIDTH:0.419999
G1 F1200
G1 X230.525 Y45.233 E.0006
G1 X230.906 Y45.047 E.01329
G1 X231.316 Y44.943 E.01326
G1 X231.739 Y44.925 E.01327
G1 X232.158 Y44.995 E.01332
G1 X232.562 Y45.156 E.01364
G1 X233.025 Y45.499 E.01807
M73 Q6 S5
G1 X233.316 Y45.905 E.01566
;WIDTH:0.429193
G1 X233.481 Y46.439 E.01795
G1 X233.513 Y46.857 E.01346
;WIDTH:0.418984
G1 X233.496 Y47.386 E.01655
;WIDTH:0.436926
G1 X233.421 Y47.819 E.0144
G1 X233.18 Y48.271 E.01678
;WIDTH:0.419999
G1 X232.885 Y48.585 E.01351
G1 X232.612 Y48.781 E.01054
M73 P6 R5
G1 X232.222 Y48.949 E.01331
;WIDTH:0.460616
G1 X232.014 Y49.01 E.00753
;WIDTH:0.501233
G1 X231.807 Y49.072 E.00823
;WIDTH:0.506128
G1 X231.374 Y49.07 E.01668
G1 X230.995 Y48.926 E.01562
;WIDTH:0.463064
G1 X230.617 Y48.783 E.01412
;WIDTH:0.419999
G1 X230.24 Y48.515 E.0145
G1 X229.955 Y48.202 E.01327
G1 X229.741 Y47.837 E.01327
G1 X229.604 Y47.426 E.01358
G1 X229.56 Y46.851 E.01808
G1 X229.642 Y46.387 E.01477
G1 X229.811 Y45.989 E.01356
G1 X230.157 Y45.527 E.0181
G1 X230.463 Y45.283 E.01227
M204 S1000
;WIPE_START
G1 F8640
G1 X230.51 Y45.245 E-.01396
G1 X230.525 Y45.233 E-.00444
G1 X230.906 Y45.047 E-.0979
G1 X231.316 Y44.943 E-.09767
G1 X231.739 Y44.925 E-.09776
G1 X232.158 Y44.995 E-.09809
G1 X232.562 Y45.156 E-.10042
G1 X233.025 Y45.499 E-.13305
G1 X233.316 Y45.905 E-.11534
G1 X233.481 Y46.439 E-.12905
G1 X233.513 Y46.857 E-.0968
G1 X233.511 Y46.924 E-.01552
;WIPE_END
G1 Z.4 F720
G1 X199.406 Y47.793 F10800
G1 Z.2 F720
G1 E1 F2100
M204 S800
;WIDTH:0.433325
G1 F1200
G1 X199.393 Y47.764 E.00103
G1 X199.314 Y47.096 E.02184
;WIDTH:0.422795
G1 X199.344 Y46.482 E.01942
;WIDTH:0.420393
G1 X199.512 Y45.905 E.01886
;WIDTH:0.419999
G1 X199.803 Y45.499 E.01566
G1 X200.265 Y45.156 E.01804
G1 X200.708 Y44.985 E.01489
G1 X201.127 Y44.923 E.01328
G1 X201.55 Y44.949 E.01329
G1 X201.959 Y45.061 E.0133
G1 X202.336 Y45.254 E.01328
G1 X202.665 Y45.52 E.01327
G1 X202.933 Y45.848 E.01328
G1 X203.129 Y46.223 E.01327
G1 X203.244 Y46.631 E.01329
G1 X203.271 Y47.062 E.01354
G1 X203.167 Y47.63 E.01811
G1 X202.97 Y48.058 E.01477
G1 X202.712 Y48.394 E.01328
G1 X202.391 Y48.671 E.01329
;WIDTH:0.461665
G1 X202.029 Y48.852 E.01409
;WIDTH:0.503331
G1 X201.667 Y49.033 E.01549
G1 X201.191 Y49.079 E.01831
;WIDTH:0.497476
G1 X200.762 Y49.028 E.01633
;WIDTH:0.493097
G1 X200.4 Y48.847 E.01515
;WIDTH:0.456548
G1 X200.038 Y48.667 E.0139
;WIDTH:0.419999
G1 X199.567 Y48.161 E.02167
;WIDTH:0.433325
G1 X199.43 Y47.848 E.01109
M204 S1000
;WIPE_START
G1 F8640
G1 X199.406 Y47.793 E-.01386
G1 X199.393 Y47.764 E-.00734
G1 X199.314 Y47.096 E-.15532
G1 X199.344 Y46.482 E-.14194
G1 X199.512 Y45.905 E-.13876
G1 X199.803 Y45.499 E-.11534
G1 X200.265 Y45.156 E-.13286
G1 X200.708 Y44.985 E-.10965
G1 X201.127 Y44.923 E-.0978
G1 X201.504 Y44.946 E-.08713
;WIPE_END
G1 Z.4 F720
G1 X199.585 Y27.88 F10800
G1 Z.2 F720
G1 E1 F2100
M204 S800
;WIDTH:0.437987
G1 F1200
G1 X199.391 Y27.464 E.01508
G1 X199.31 Y26.748 E.02367
;WIDTH:0.418827
G1 X199.345 Y26.182 E.01773
;WIDTH:0.439557
G1 X199.444 Y25.741 E.01491
G1 X199.669 Y25.366 E.01442
;WIDTH:0.419999
G1 X199.99 Y25.069 E.01371
;WIDTH:0.442187
G1 X200.382 Y24.872 E.01457
G1 X201.1 Y24.783 E.02402
;WIDTH:0.423806
G1 X201.641 Y24.801 E.01714
;WIDTH:0.436099
G1 X202.102 Y24.891 E.01536
G1 X202.49 Y25.099 E.01439
;WIDTH:0.419999
G1 X202.897 Y25.504 E.018
G1 X203.129 Y25.923 E.01502
G1 X203.243 Y26.331 E.01328
G1 X203.272 Y26.753 E.01326
G1 X203.214 Y27.173 E.01329
G1 X203.071 Y27.572 E.01329
G1 X202.85 Y27.933 E.01327
G1 X202.559 Y28.241 E.01329
G1 X202.212 Y28.483 E.01326
G1 X201.822 Y28.649 E.01329
G1 X201.397 Y28.731 E.01357
G1 X200.799 Y28.699 E.01878
G1 X200.37 Y28.559 E.01415
G1 X199.994 Y28.333 E.01375
G1 X199.617 Y27.93 E.0173
M204 S1000
;WIPE_START
G1 F8640
G1 X199.585 Y27.88 E-.01371
G1 X199.391 Y27.464 E-.10599
G1 X199.31 Y26.748 E-.16638
G1 X199.345 Y26.182 E-.13094
G1 X199.444 Y25.741 E-.10436
G1 X199.669 Y25.366 E-.10098
G1 X199.99 Y25.069 E-.10098
G1 X200.382 Y24.872 E-.1013
G1 X201.1 Y24.783 E-.16706
G1 X201.136 Y24.784 E-.0083
;WIPE_END
G1 Z.4 F720
G1 X233.395 Y48.588 F10800
G1 Z.2 F720
G1 E1 F2100
M73 Q7 S5
M204 S800
;TYPE:Perimeter
;WIDTH:0.400625
G1 F1200
G1 X233.385 Y49.204 E.01832
G1 X232.564 Y49.204 E.02442
G1 X232.76 Y49.117 E.00638
G1 X233.103 Y48.881 E.01238
G1 X233.352 Y48.631 E.01049
M204 S1000
;WIPE_START
G1 F8640
G1 X233.395 Y48.588 E-.01404
G1 X233.385 Y49.204 E-.14225
G1 X232.564 Y49.204 E-.18957
G1 X232.76 Y49.117 E-.04952
G1 X233.103 Y48.881 E-.09614
M73 P7 R5
G1 X233.352 Y48.631 E-.08147
;WIPE_END
G1 E-.42701 F2100
G1 Z.4 F720
G1 X208.084 Y27.879 F10800
G1 Z.2 F720
G1 E1 F2100
M204 S800
;WIDTH:0.35751
G1 F1200
G1 X208.025 Y27.913 E.00178
G1 X208.084 Y27.947 E.00178
G1 X208.103 Y27.913 E.00102
M204 S1000
;WIPE_START
G1 F8640
G1 X208.084 Y27.947 E-.00899
G1 X208.025 Y27.913 E-.01572
G1 X208.084 Y27.879 E-.01572
;WIPE_END
G1 E-.95957 F2100
G1 Z.4 F720
G1 X206.578 Y27.567 F10800
G1 Z.2 F720
G1 E1 F2100
M204 S800
;WIDTH:0.419999
G1 F1200
G1 X209.462 Y27.567 E.09043
G1 X208.877 Y27.787 E.0196
G1 X208.286 Y28.179 E.02224
G1 X208.064 Y28.393 E.00967
G1 X207.842 Y28.179 E.00967
G1 X207.082 Y27.706 E.02807
G1 X206.636 Y27.583 E.01451
M204 S1000
;WIPE_START
G1 F8640
G1 X206.578 Y27.567 E-.01389
G1 X209.462 Y27.567 E-.66592
G1 X208.877 Y27.787 E-.14431
G1 X208.286 Y28.179 E-.16375
G1 X208.248 Y28.215 E-.01213
;WIPE_END
G1 Z.4 F720
G1 X226.991 Y27.748 F10800
G1 Z.2 F720
G1 E1 F2100
M204 S800
;WIDTH:0.540662
G1 F1200
G1 X210.343 Y27.748 E.68902
;WIDTH:0.564433
G1 X209.841 Y27.78 E.02181
G1 X209.751 Y27.819 E.00425
;WIDTH:0.525709
G1 X209.66 Y27.858 E.00397
;WIDTH:0.486984
G1 X209.354 Y27.99 E.01231
;WIDTH:0.453492
G1 X209.049 Y28.122 E.01135
;WIDTH:0.419999
G1 X208.528 Y28.468 E.01961
G1 X208.237 Y28.749 E.01268
G1 X208.064 Y28.984 E.00915
G1 X207.891 Y28.749 E.00915
G1 X207.6 Y28.468 E.01268
G1 X206.93 Y28.051 E.02474
G1 X206.121 Y27.829 E.0263
G1 X205.779 Y27.8 E.01076
G1 X205.877 Y27.19 E.01937
G1 X208.824 Y27.19 E.0924
;WIDTH:0.468144
G1 X209.148 Y27.214 E.01149
;WIDTH:0.516289
G1 X209.472 Y27.239 E.01279
;WIDTH:0.564433
G1 X209.796 Y27.263 E.01409
G1 X210.343 Y27.251 E.02373
;WIDTH:0.540662
G1 X226.898 Y27.251 E.68517
G1 X226.98 Y27.689 E.01844
M73 P8 R5
M73 Q8 S5
M204 S1000
G1 X226.98 Y27.689 F10800
G1 X227.573 Y28.193
M204 S800
;WIDTH:0.419999
G1 F1200
G1 X210.343 Y28.186 E.54023
G1 X209.758 Y28.257 E.01848
G1 X209.222 Y28.457 E.01794
G1 X208.77 Y28.757 E.01701
G1 X208.518 Y29.001 E.011
G1 X208.239 Y29.379 E.01473
G1 X208.064 Y29.776 E.0136
G1 X207.889 Y29.379 E.0136
G1 X207.611 Y29.001 E.01471
G1 X207.358 Y28.757 E.01102
G1 X206.777 Y28.395 E.02146
G1 X206.076 Y28.203 E.02279
G1 X205.257 Y28.186 E.02568
G1 X205.351 Y27.916 E.00896
G1 X205.467 Y27.421 E.01594
G1 X205.522 Y26.813 E.01914
G1 X227.306 Y26.813 E.68302
G1 X227.362 Y27.426 E.0193
G1 X227.557 Y28.135 E.02306
M204 S1000
;WIPE_START
G1 F8640
G1 X227.573 Y28.193 E-.01389
G1 X223.302 Y28.191 E-.98611
;WIPE_END
G1 Z.4 F720
G1 X207.205 Y46.493 F10800
G1 Z.2 F720
G1 E1 F2100
M204 S800
;WIDTH:0.543714
G1 F1200
G1 X207.902 Y46.051 E.03437
G1 X208.064 Y45.892 E.00945
G1 X208.226 Y46.051 E.00945
G1 X208.92 Y46.493 E.03426
G1 X207.265 Y46.493 E.06892
M73 Q9 S5
M204 S1000
;WIPE_START
G1 F8640
G1 X207.205 Y46.493 E-.01385
G1 X207.902 Y46.051 E-.19057
G1 X208.064 Y45.892 E-.05241
G1 X208.226 Y46.051 E-.05241
G1 X208.92 Y46.493 E-.18999
G1 X207.265 Y46.493 E-.38214
;WIPE_END
G1 E-.11863 F2100
M73 P9 R5
G1 Z.4 F720
G1 X226.912 Y46.432 F10800
G1 Z.2 F720
G1 E1 F2100
M204 S800
;WIDTH:0.501908
G1 F1200
G1 X226.886 Y46.891 E.01755
G1 X210.343 Y46.891 E.63136
;WIDTH:0.54845
G1 X209.583 Y46.867 E.03196
G1 X209.33 Y46.889 E.01067
;WIDTH:0.505633
G1 X209.077 Y46.91 E.00977
;WIDTH:0.462816
G1 X208.824 Y46.932 E.00887
;WIDTH:0.419999
G1 X207.12 Y46.932 E.05343
;WIDTH:0.467103
G1 X206.534 Y46.908 E.02069
;WIDTH:0.514207
G1 X205.948 Y46.884 E.02298
G1 X205.923 Y46.434 E.01766
;WIDTH:0.525386
G1 X206.283 Y46.4 E.01451
G1 X206.505 Y46.313 E.00957
;WIDTH:0.490257
G1 X206.727 Y46.227 E.00886
;WIDTH:0.455128
G1 X206.95 Y46.14 E.0082
;WIDTH:0.419999
G1 X207.617 Y45.717 E.02476
G1 X207.906 Y45.433 E.0127
G1 X208.064 Y45.216 E.00842
G1 X208.222 Y45.433 E.00842
G1 X208.511 Y45.717 E.0127
G1 X209.035 Y46.07 E.01981
;WIDTH:0.462816
G1 X209.238 Y46.17 E.0079
;WIDTH:0.505633
G1 X209.441 Y46.27 E.00871
;WIDTH:0.54845
G1 X209.644 Y46.369 E.00949
G1 X210.343 Y46.432 E.0295
;WIDTH:0.501908
G1 X226.852 Y46.432 E.63007
M204 S1000
G1 X226.852 Y46.432 F10800
G1 X227.401 Y46.018
M204 S800
;WIDTH:0.419999
G1 F1200
G1 X227.301 Y46.698 E.02155
G1 X227.326 Y47.309 E.01917
G1 X205.505 Y47.309 E.68418
G1 X205.518 Y46.7 E.0191
M73 P10 R5
M73 Q10 S5
G1 X205.42 Y46.014 E.02173
G1 X206.209 Y45.977 E.02477
G1 X206.794 Y45.796 E.0192
G1 X207.373 Y45.43 E.02148
G1 X207.624 Y45.184 E.01102
G1 X207.898 Y44.805 E.01466
G1 X208.064 Y44.422 E.01309
G1 X208.23 Y44.805 E.01309
G1 X208.504 Y45.184 E.01466
G1 X208.755 Y45.43 E.01102
G1 X209.209 Y45.736 E.01717
G1 X209.751 Y45.941 E.01817
G1 X210.343 Y46.014 E.0187
G1 X227.341 Y46.018 E.53296
M204 S1000
;WIPE_START
G1 F8640
G1 X227.401 Y46.018 E-.01385
G1 X227.301 Y46.698 E-.1587
G1 X227.326 Y47.309 E-.1412
G1 X224.354 Y47.309 E-.68625
;WIPE_END
G1 Z.4 F720
G1 X207.247 Y29.173 F10800
G1 Z.2 F720
G1 E1 F2100
M204 S800
G1 F1200
G1 X207.116 Y29.046 E.00572
G1 X206.625 Y28.74 E.01814
G1 X206.031 Y28.578 E.0193
G1 X204.699 Y28.563 E.04177
G1 X204.868 Y28.156 E.01382
G1 X205.075 Y27.491 E.02184
G1 X205.142 Y26.996 E.01566
G1 X205.143 Y26.436 E.01756
G1 X227.685 Y26.436 E.70679
G1 X227.675 Y26.569 E.00418
G1 X227.735 Y27.377 E.0254
G1 X227.96 Y28.156 E.02542
G1 X228.263 Y28.746 E.0208
G1 X227.833 Y28.602 E.01422
M73 Q11 S5
G1 X227.432 Y28.563 E.01263
G1 X210.343 Y28.563 E.53581
G1 X209.984 Y28.594 E.0113
M73 P11 R5
G1 X209.394 Y28.793 E.01952
G1 X209.012 Y29.046 E.01437
G1 X208.798 Y29.253 E.00934
